Newaita-dark/.places-aqua/64/folder-images.svg

<?xml version="1.0" encoding="UTF-8"?>
<svg xmlns="http://www.w3.org/2000/svg" xmlns:xlink="http://www.w3.org/1999/xlink" width="64px" height="64px" viewBox="0 0 64 64" version="1.1">
<defs>
<linearGradient id="linear0" gradientUnits="userSpaceOnUse" x1="254" y1="233.5" x2="254" y2="254.666672" gradientTransform="matrix(0.125012,0,0,0.125012,-0.00000763012,26.877574)">
<stop offset="0" style="stop-color:rgb(0%,0%,0%);stop-opacity:0.27451;"/>
<stop offset="1" style="stop-color:rgb(0%,0%,0%);stop-opacity:0;"/>
</linearGradient>
<radialGradient id="radial0" gradientUnits="userSpaceOnUse" cx="450.908936" cy="189.579361" fx="450.908936" fy="189.579361" r="21.166656" gradientTransform="matrix(0.000000348341,-0.156265,-0.281277,-0.000000203077,108.230425,127.190669)">
<stop offset="0" style="stop-color:rgb(0%,0%,0%);stop-opacity:0.313726;"/>
<stop offset="0.222222" style="stop-color:rgb(0%,0%,0%);stop-opacity:0.27451;"/>
<stop offset="1" style="stop-color:rgb(0%,0%,0%);stop-opacity:0;"/>
</radialGradient>
<radialGradient id="radial1" gradientUnits="userSpaceOnUse" cx="450.908936" cy="189.579361" fx="450.908936" fy="189.579361" r="21.166656" gradientTransform="matrix(-0.000000348341,0.156265,0.281277,0.000000203077,-44.724356,-15.054954)">
<stop offset="0" style="stop-color:rgb(0%,0%,0%);stop-opacity:0.313726;"/>
<stop offset="0.222222" style="stop-color:rgb(0%,0%,0%);stop-opacity:0.27451;"/>
<stop offset="1" style="stop-color:rgb(0%,0%,0%);stop-opacity:0;"/>
</radialGradient>
<radialGradient id="radial2" gradientUnits="userSpaceOnUse" cx="450.908936" cy="189.579361" fx="450.908936" fy="189.579361" r="21.166656" gradientTransform="matrix(-0.000000348341,-0.156265,0.281277,-0.000000203077,-44.724356,127.190669)">
<stop offset="0" style="stop-color:rgb(0%,0%,0%);stop-opacity:0.313726;"/>
<stop offset="0.222222" style="stop-color:rgb(0%,0%,0%);stop-opacity:0.27451;"/>
<stop offset="1" style="stop-color:rgb(0%,0%,0%);stop-opacity:0;"/>
</radialGradient>
<radialGradient id="radial3" gradientUnits="userSpaceOnUse" cx="450.908936" cy="189.579361" fx="450.908936" fy="189.579361" r="21.166656" gradientTransform="matrix(0.000000348341,0.156265,-0.281277,0.000000203077,108.230422,-15.054955)">
<stop offset="0" style="stop-color:rgb(0%,0%,0%);stop-opacity:0.313726;"/>
<stop offset="0.222222" style="stop-color:rgb(0%,0%,0%);stop-opacity:0.27451;"/>
<stop offset="1" style="stop-color:rgb(0%,0%,0%);stop-opacity:0;"/>
</radialGradient>
<linearGradient id="linear1" gradientUnits="userSpaceOnUse" x1="254" y1="-147.5" x2="254" y2="-31.083334" gradientTransform="matrix(0.125012,0,0,0.125012,0.00000249951,26.877563)">
<stop offset="0" style="stop-color:rgb(64.313728%,64.313728%,64.313728%);stop-opacity:0;"/>
<stop offset="1" style="stop-color:rgb(100%,100%,100%);stop-opacity:0.196078;"/>
</linearGradient>
<linearGradient id="linear2" gradientUnits="userSpaceOnUse" x1="254" y1="233.5" x2="254" y2="-105.166656" gradientTransform="matrix(0.125012,0,0,0.125012,-0.00000362479,26.877566)">
<stop offset="0" style="stop-color:rgb(34.509805%,34.509805%,34.509805%);stop-opacity:0;"/>
<stop offset="1" style="stop-color:rgb(98.039216%,98.039216%,98.039216%);stop-opacity:0.196078;"/>
</linearGradient>
</defs>
<g id="surface1">
<path style=" stroke:none;fill-rule:nonzero;fill:url(#linear0);" d="M 7.9375 56.066406 L 55.566406 56.066406 L 55.566406 58.714844 L 7.9375 58.714844 Z M 7.9375 56.066406 "/>
<path style=" stroke:none;fill-rule:nonzero;fill:url(#radial0);" d="M 55.566406 56.066406 L 60.859375 56.066406 L 60.859375 53.421875 L 55.566406 53.421875 Z M 55.566406 56.066406 "/>
<path style=" stroke:none;fill-rule:nonzero;fill:url(#radial1);" d="M 7.9375 56.066406 L 2.644531 56.066406 L 2.644531 58.714844 L 7.9375 58.714844 Z M 7.9375 56.066406 "/>
<path style=" stroke:none;fill-rule:nonzero;fill:url(#radial2);" d="M 7.9375 56.066406 L 2.644531 56.066406 L 2.644531 53.421875 L 7.9375 53.421875 Z M 7.9375 56.066406 "/>
<path style=" stroke:none;fill-rule:nonzero;fill:url(#radial3);" d="M 55.566406 56.066406 L 60.859375 56.066406 L 60.859375 58.714844 L 55.566406 58.714844 Z M 55.566406 56.066406 "/>
<path style=" stroke:none;fill-rule:nonzero;fill:rgb(56.470591%,79.215688%,97.647059%);fill-opacity:1;" d="M 14.554688 8.4375 L 57.550781 8.4375 C 59.015625 8.4375 60.199219 9.621094 60.199219 11.085938 L 60.199219 21.007812 C 60.199219 22.46875 59.015625 23.652344 57.550781 23.652344 L 14.554688 23.652344 C 13.09375 23.652344 11.90625 22.46875 11.90625 21.007812 L 11.90625 11.085938 C 11.90625 9.621094 13.09375 8.4375 14.554688 8.4375 Z M 14.554688 8.4375 "/>
<path style=" stroke:none;fill-rule:nonzero;fill:url(#linear1);" d="M 14.554688 8.4375 L 57.550781 8.4375 C 59.015625 8.4375 60.199219 9.621094 60.199219 11.085938 L 60.199219 21.007812 C 60.199219 22.46875 59.015625 23.652344 57.550781 23.652344 L 14.554688 23.652344 C 13.09375 23.652344 11.90625 22.46875 11.90625 21.007812 L 11.90625 11.085938 C 11.90625 9.621094 13.09375 8.4375 14.554688 8.4375 Z M 14.554688 8.4375 "/>
<path style=" stroke:none;fill-rule:nonzero;fill:rgb(100%,100%,100%);fill-opacity:0.392157;" d="M 14.554688 8.597656 C 13.085938 8.597656 11.90625 9.777344 11.90625 11.242188 L 11.90625 11.574219 C 11.90625 10.109375 13.085938 8.929688 14.554688 8.929688 L 57.550781 8.929688 C 59.019531 8.929688 60.199219 10.109375 60.199219 11.574219 L 60.199219 11.242188 C 60.199219 9.777344 59.019531 8.597656 57.550781 8.597656 Z M 14.554688 8.597656 "/>
<path style=" stroke:none;fill-rule:nonzero;fill:rgb(12.941177%,12.941177%,12.941177%);fill-opacity:1;" d="M 14.554688 8.25 C 12.988281 8.25 11.71875 9.519531 11.71875 11.085938 L 11.71875 21.007812 C 11.71875 22.574219 12.988281 23.839844 14.554688 23.839844 L 57.550781 23.839844 C 59.117188 23.839844 60.386719 22.574219 60.386719 21.007812 L 60.386719 11.085938 C 60.386719 9.519531 59.117188 8.25 57.550781 8.25 Z M 14.554688 8.625 L 57.550781 8.625 C 58.917969 8.625 60.011719 9.71875 60.011719 11.085938 L 60.011719 21.007812 C 60.011719 22.371094 58.917969 23.464844 57.550781 23.464844 L 14.554688 23.464844 C 13.1875 23.464844 12.09375 22.371094 12.09375 21.007812 L 12.09375 11.085938 C 12.09375 9.71875 13.1875 8.625 14.554688 8.625 Z M 14.554688 8.625 "/>
<path style=" stroke:none;fill-rule:nonzero;fill:rgb(73.333335%,87.058824%,98.431373%);fill-opacity:1;" d="M 5.292969 13.730469 C 3.828125 13.730469 2.644531 14.910156 2.644531 16.375 L 2.644531 53.421875 C 2.644531 54.886719 3.828125 56.066406 5.292969 56.066406 L 58.214844 56.066406 C 59.679688 56.066406 60.859375 54.886719 60.859375 53.421875 L 60.859375 20.34375 L 25.136719 20.34375 C 23.671875 20.34375 22.492188 19.164062 22.492188 17.699219 L 22.492188 13.730469 Z M 5.292969 13.730469 "/>
<path style=" stroke:none;fill-rule:nonzero;fill:url(#linear2);" d="M 5.292969 13.730469 C 3.828125 13.730469 2.644531 14.910156 2.644531 16.375 L 2.644531 53.421875 C 2.644531 54.886719 3.828125 56.066406 5.292969 56.066406 L 58.214844 56.066406 C 59.679688 56.066406 60.859375 54.886719 60.859375 53.421875 L 60.859375 20.34375 L 25.136719 20.34375 C 23.671875 20.34375 22.492188 19.164062 22.492188 17.699219 L 22.492188 13.730469 Z M 5.292969 13.730469 "/>
<path style=" stroke:none;fill-rule:nonzero;fill:rgb(0%,0%,0%);fill-opacity:0.196078;" d="M 5.292969 56.066406 C 3.828125 56.066406 2.644531 54.886719 2.644531 53.421875 L 2.644531 53.089844 C 2.644531 54.558594 3.828125 55.738281 5.292969 55.738281 L 58.214844 55.738281 C 59.679688 55.738281 60.859375 54.558594 60.859375 53.089844 L 60.859375 53.421875 C 60.859375 54.886719 59.679688 56.066406 58.214844 56.066406 Z M 5.292969 56.066406 "/>
<path style=" stroke:none;fill-rule:nonzero;fill:rgb(100%,100%,100%);fill-opacity:0.392157;" d="M 5.292969 13.894531 C 3.828125 13.894531 2.644531 15.074219 2.644531 16.542969 L 2.644531 16.871094 C 2.644531 15.40625 3.828125 14.226562 5.292969 14.226562 L 22.492188 14.226562 L 22.492188 13.894531 Z M 5.292969 13.894531 "/>
<path style=" stroke:none;fill-rule:nonzero;fill:rgb(100%,100%,100%);fill-opacity:0.392157;" d="M 24.972656 20.675781 C 23.507812 20.675781 22.328125 19.496094 22.328125 18.03125 L 22.328125 17.699219 C 22.328125 19.164062 23.507812 20.347656 24.972656 20.34375 L 60.859375 20.34375 L 60.859375 20.675781 Z M 24.972656 20.675781 "/>
<path style=" stroke:none;fill-rule:nonzero;fill:rgb(12.941177%,12.941177%,12.941177%);fill-opacity:1;" d="M 5.292969 13.542969 C 3.726562 13.542969 2.457031 14.808594 2.457031 16.375 L 2.457031 53.421875 C 2.457031 54.988281 3.726562 56.253906 5.292969 56.253906 L 58.214844 56.253906 C 59.78125 56.253906 61.046875 54.988281 61.046875 53.421875 L 61.046875 19.96875 L 25.136719 19.96875 C 23.773438 19.96875 22.679688 18.878906 22.679688 17.511719 L 22.679688 13.542969 Z M 5.292969 13.917969 L 22.304688 13.917969 L 22.304688 17.511719 C 22.304688 19.078125 23.570312 20.34375 25.136719 20.34375 L 60.671875 20.34375 L 60.671875 53.421875 C 60.671875 54.785156 59.578125 55.878906 58.214844 55.878906 L 5.292969 55.878906 C 3.925781 55.878906 2.832031 54.785156 2.832031 53.421875 L 2.832031 16.375 C 2.832031 15.011719 3.925781 13.917969 5.292969 13.917969 Z M 5.292969 13.917969 "/>
<path style=" stroke:none;fill-rule:nonzero;fill:rgb(39.215687%,70.980394%,96.470588%);fill-opacity:1;" d="M 27.785156 25.449219 C 26.316406 25.449219 25.136719 26.628906 25.136719 28.097656 C 25.136719 29.5625 26.316406 30.742188 27.785156 30.742188 C 29.25 30.742188 30.429688 29.5625 30.429688 28.097656 C 30.429688 26.628906 29.25 25.449219 27.785156 25.449219 Z M 35.722656 30.742188 C 32.414062 30.742188 32.414062 40.003906 30.429688 40.003906 C 28.445312 40.003906 27.785156 34.710938 26.460938 34.710938 C 24.476562 34.710938 22.492188 41.304688 22.492188 45.296875 C 22.492188 46.027344 23.082031 46.617188 23.816406 46.617188 L 39.691406 46.617188 C 40.425781 46.617188 41.015625 46.027344 41.015625 45.296875 C 41.109375 40.117188 39.03125 30.742188 35.722656 30.742188 Z M 35.722656 30.742188 "/>
<path style=" stroke:none;fill-rule:nonzero;fill:rgb(100%,100%,100%);fill-opacity:0.392157;" d="M 25.148438 28.359375 C 25.140625 28.441406 25.136719 28.527344 25.136719 28.613281 C 25.136719 30.082031 26.316406 31.261719 27.785156 31.261719 C 29.25 31.261719 30.429688 30.082031 30.429688 28.613281 C 30.429688 28.527344 30.425781 28.441406 30.417969 28.359375 C 30.289062 29.703125 29.164062 30.75 27.785156 30.75 C 26.402344 30.75 25.277344 29.703125 25.148438 28.359375 Z M 41.015625 45.203125 C 41.015625 45.238281 41.015625 45.269531 41.015625 45.304688 C 41.015625 46.039062 40.425781 46.628906 39.691406 46.628906 L 23.816406 46.628906 C 23.125 46.628906 22.558594 46.101562 22.496094 45.425781 C 22.492188 45.558594 22.492188 45.6875 22.492188 45.8125 C 22.492188 46.546875 23.082031 47.136719 23.816406 47.136719 L 39.691406 47.136719 C 40.425781 47.136719 41.015625 46.546875 41.015625 45.8125 C 41.019531 45.617188 41.019531 45.410156 41.015625 45.203125 Z M 41.015625 45.203125 "/>
<path style=" stroke:none;fill-rule:nonzero;fill:rgb(0%,0%,0%);fill-opacity:0.235294;" d="M 27.785156 25.449219 C 26.316406 25.449219 25.136719 26.628906 25.136719 28.097656 C 25.136719 28.183594 25.140625 28.269531 25.152344 28.355469 C 25.28125 27.011719 26.40625 25.96875 27.785156 25.96875 C 29.164062 25.96875 30.289062 27.011719 30.417969 28.355469 C 30.425781 28.269531 30.429688 28.183594 30.429688 28.097656 C 30.429688 26.628906 29.25 25.449219 27.785156 25.449219 Z M 35.722656 30.742188 C 32.414062 30.742188 32.414062 40.003906 30.429688 40.003906 C 28.445312 40.003906 27.785156 34.710938 26.460938 34.710938 C 24.476562 34.710938 22.492188 41.304688 22.492188 45.296875 C 22.492188 45.339844 22.492188 45.378906 22.496094 45.421875 C 22.621094 41.40625 24.539062 35.230469 26.460938 35.230469 C 27.785156 35.230469 28.445312 40.523438 30.429688 40.523438 C 32.414062 40.523438 32.414062 31.261719 35.722656 31.261719 C 38.902344 31.261719 40.949219 39.925781 41.015625 45.199219 C 41.085938 40 39.007812 30.742188 35.722656 30.742188 Z M 35.722656 30.742188 "/>
<path style=" stroke:none;fill-rule:nonzero;fill:rgb(12.941177%,12.941177%,12.941177%);fill-opacity:1;" d="M 27.785156 25.261719 C 26.21875 25.261719 24.949219 26.53125 24.949219 28.097656 C 24.949219 29.664062 26.21875 30.929688 27.785156 30.929688 C 29.351562 30.929688 30.617188 29.664062 30.617188 28.097656 C 30.617188 26.53125 29.351562 25.261719 27.785156 25.261719 Z M 27.785156 25.636719 C 29.148438 25.636719 30.242188 26.730469 30.242188 28.097656 C 30.242188 29.460938 29.148438 30.554688 27.785156 30.554688 C 26.417969 30.554688 25.324219 29.460938 25.324219 28.097656 C 25.324219 26.730469 26.417969 25.636719 27.785156 25.636719 Z M 35.722656 30.554688 C 34.808594 30.554688 34.128906 31.199219 33.617188 32.097656 C 33.105469 32.992188 32.730469 34.160156 32.398438 35.320312 C 32.066406 36.484375 31.777344 37.640625 31.453125 38.488281 C 31.292969 38.914062 31.121094 39.261719 30.945312 39.492188 C 30.765625 39.71875 30.605469 39.816406 30.429688 39.816406 C 30.015625 39.816406 29.65625 39.539062 29.308594 39.066406 C 28.964844 38.59375 28.65625 37.941406 28.371094 37.28125 C 28.082031 36.625 27.8125 35.960938 27.523438 35.445312 C 27.378906 35.191406 27.230469 34.96875 27.0625 34.804688 C 26.890625 34.640625 26.6875 34.523438 26.460938 34.523438 C 25.859375 34.523438 25.328125 34.996094 24.847656 35.699219 C 24.367188 36.402344 23.929688 37.363281 23.554688 38.445312 C 22.804688 40.613281 22.304688 43.269531 22.304688 45.296875 C 22.304688 46.128906 22.980469 46.804688 23.816406 46.804688 L 39.691406 46.804688 C 40.523438 46.804688 41.203125 46.128906 41.203125 45.296875 C 41.25 42.679688 40.753906 39.035156 39.824219 36.019531 C 39.359375 34.515625 38.789062 33.167969 38.113281 32.183594 C 37.4375 31.195312 36.636719 30.554688 35.722656 30.554688 Z M 35.722656 30.929688 C 36.460938 30.929688 37.164062 31.460938 37.804688 32.394531 C 38.445312 33.328125 39.007812 34.648438 39.464844 36.132812 C 40.378906 39.101562 40.875 42.730469 40.828125 45.292969 L 40.828125 45.296875 C 40.828125 45.929688 40.324219 46.429688 39.691406 46.429688 L 23.816406 46.429688 C 23.183594 46.429688 22.679688 45.929688 22.679688 45.296875 C 22.679688 43.332031 23.171875 40.695312 23.910156 38.570312 C 24.277344 37.503906 24.707031 36.570312 25.160156 35.910156 C 25.609375 35.25 26.070312 34.898438 26.460938 34.898438 C 26.5625 34.898438 26.671875 34.949219 26.800781 35.074219 C 26.925781 35.199219 27.0625 35.390625 27.195312 35.628906 C 27.464844 36.109375 27.734375 36.769531 28.027344 37.433594 C 28.316406 38.097656 28.628906 38.769531 29.007812 39.289062 C 29.386719 39.804688 29.851562 40.191406 30.429688 40.191406 C 30.75 40.191406 31.023438 40 31.238281 39.71875 C 31.457031 39.441406 31.636719 39.066406 31.804688 38.625 C 32.140625 37.738281 32.429688 36.578125 32.761719 35.425781 C 33.089844 34.269531 33.460938 33.125 33.941406 32.28125 C 34.421875 31.441406 34.984375 30.929688 35.722656 30.929688 Z M 35.722656 30.929688 "/>
</g>
</svg>

<svg xmlns="http://www.w3.org/2000/svg" width="64pt" height="64pt" viewBox="0 0 64 64"><defs><linearGradient id="a" gradientUnits="userSpaceOnUse" x1="254" y1="233.5" x2="254" y2="254.667" gradientTransform="translate(0 26.878) scale(.12501)"><stop offset="0" stop-opacity=".275"/><stop offset="1" stop-opacity="0"/></linearGradient><radialGradient id="b" gradientUnits="userSpaceOnUse" cx="450.909" cy="189.579" fx="450.909" fy="189.579" r="21.167" gradientTransform="matrix(0 -.15626 -.28128 0 108.23 127.19)"><stop offset="0" stop-opacity=".314"/><stop offset=".222" stop-opacity=".275"/><stop offset="1" stop-opacity="0"/></radialGradient><radialGradient id="c" gradientUnits="userSpaceOnUse" cx="450.909" cy="189.579" fx="450.909" fy="189.579" r="21.167" gradientTransform="matrix(0 .15626 .28128 0 -44.724 -15.055)"><stop offset="0" stop-opacity=".314"/><stop offset=".222" stop-opacity=".275"/><stop offset="1" stop-opacity="0"/></radialGradient><radialGradient id="d" gradientUnits="userSpaceOnUse" cx="450.909" cy="189.579" fx="450.909" fy="189.579" r="21.167" gradientTransform="matrix(0 -.15626 .28128 0 -44.724 127.19)"><stop offset="0" stop-opacity=".314"/><stop offset=".222" stop-opacity=".275"/><stop offset="1" stop-opacity="0"/></radialGradient><radialGradient id="e" gradientUnits="userSpaceOnUse" cx="450.909" cy="189.579" fx="450.909" fy="189.579" r="21.167" gradientTransform="matrix(0 .15626 -.28128 0 108.23 -15.055)"><stop offset="0" stop-opacity=".314"/><stop offset=".222" stop-opacity=".275"/><stop offset="1" stop-opacity="0"/></radialGradient><linearGradient id="f" gradientUnits="userSpaceOnUse" x1="254" y1="-147.5" x2="254" y2="-31.083" gradientTransform="translate(0 26.878) scale(.12501)"><stop offset="0" stop-color="#a4a4a4" stop-opacity="0"/><stop offset="1" stop-color="#fff" stop-opacity=".196"/></linearGradient><linearGradient id="g" gradientUnits="userSpaceOnUse" x1="254" y1="233.5" x2="254" y2="-105.167" gradientTransform="translate(0 26.878) scale(.12501)"><stop offset="0" stop-color="#585858" stop-opacity="0"/><stop offset="1" stop-color="#fafafa" stop-opacity=".196"/></linearGradient><linearGradient id="h" gradientUnits="userSpaceOnUse" x1="254" y1="-147.5" x2="254" y2="233.5" gradientTransform="translate(0 26.878) scale(.12501)"><stop offset="0" stop-color="#a4a4a4" stop-opacity="0"/><stop offset="1" stop-color="#fff" stop-opacity=".196"/></linearGradient></defs><path d="M7.938 56.066h47.628v2.649H7.937zm0 0" fill="url(#a)"/><path d="M55.566 56.066h5.293v-2.644h-5.293zm0 0" fill="url(#b)"/><path d="M7.938 56.066H2.644v2.649h5.292zm0 0" fill="url(#c)"/><path d="M7.938 56.066H2.644v-2.644h5.292zm0 0" fill="url(#d)"/><path d="M55.566 56.066h5.293v2.649h-5.293zm0 0" fill="url(#e)"/><path d="M14.555 8.438H57.55a2.646 2.646 0 0 1 2.648 2.648v9.922a2.645 2.645 0 0 1-2.648 2.644H14.555a2.647 2.647 0 0 1-2.649-2.644v-9.922a2.648 2.648 0 0 1 2.649-2.649zm0 0" fill="#64b5f6"/><path d="M14.555 8.438H57.55a2.646 2.646 0 0 1 2.648 2.648v9.922a2.645 2.645 0 0 1-2.648 2.644H14.555a2.647 2.647 0 0 1-2.649-2.644v-9.922a2.648 2.648 0 0 1 2.649-2.649zm0 0" fill="url(#f)"/><path d="M14.555 8.438a2.64 2.64 0 0 0-2.649 2.648v.328a2.64 2.64 0 0 1 2.649-2.644H57.55a2.64 2.64 0 0 1 2.648 2.644v-.328a2.64 2.64 0 0 0-2.648-2.649zm0 0" fill="#e6e6e6" fill-opacity=".588"/><path d="M14.555 8.25a2.836 2.836 0 0 0-2.836 2.836v9.922a2.832 2.832 0 0 0 2.836 2.832H57.55a2.832 2.832 0 0 0 2.836-2.832v-9.922A2.836 2.836 0 0 0 57.55 8.25zm0 .375H57.55a2.45 2.45 0 0 1 2.46 2.46v9.923a2.45 2.45 0 0 1-2.46 2.457H14.555a2.45 2.45 0 0 1-2.461-2.457v-9.922a2.45 2.45 0 0 1 2.46-2.461zm0 0" fill="#212121"/><path d="M5.293 13.73a2.642 2.642 0 0 0-2.648 2.645v37.047a2.642 2.642 0 0 0 2.648 2.644h52.922a2.639 2.639 0 0 0 2.644-2.644V20.344H25.137a2.639 2.639 0 0 1-2.645-2.645V13.73zm0 0" fill="#bbdefb"/><path d="M5.293 13.73a2.642 2.642 0 0 0-2.648 2.645v37.047a2.642 2.642 0 0 0 2.648 2.644h52.922a2.639 2.639 0 0 0 2.644-2.644V20.344H25.137a2.639 2.639 0 0 1-2.645-2.645V13.73zm0 0" fill="url(#g)"/><path d="M5.293 56.066a2.642 2.642 0 0 1-2.648-2.644v-.332a2.643 2.643 0 0 0 2.648 2.648h52.922a2.64 2.64 0 0 0 2.644-2.648v.332a2.639 2.639 0 0 1-2.644 2.644zm0 0" fill-opacity=".196"/><path d="M5.293 13.73a2.642 2.642 0 0 0-2.648 2.645v.332a2.642 2.642 0 0 1 2.648-2.645h17.2v-.332zm0 0M24.973 20.512a2.64 2.64 0 0 1-2.645-2.649v-.328a2.637 2.637 0 0 0 2.645 2.645h35.886v.332zm0 0" fill="#e6e6e6" fill-opacity=".937"/><path d="M5.293 13.543a2.832 2.832 0 0 0-2.836 2.832v37.047a2.832 2.832 0 0 0 2.836 2.832h52.922a2.83 2.83 0 0 0 2.832-2.832V19.969h-35.91a2.447 2.447 0 0 1-2.457-2.457v-3.969zm0 .375h17.012v3.594a2.83 2.83 0 0 0 2.832 2.832h35.535v33.078a2.449 2.449 0 0 1-2.457 2.457H5.293a2.45 2.45 0 0 1-2.461-2.457V16.375a2.45 2.45 0 0 1 2.461-2.457zm0 0" fill="#212121"/><path d="M27.785 25.45a2.64 2.64 0 0 0-2.648 2.648 2.64 2.64 0 0 0 2.648 2.644 2.639 2.639 0 0 0 2.645-2.644 2.64 2.64 0 0 0-2.645-2.649zm7.938 5.292c-3.309 0-3.309 9.262-5.293 9.262-1.985 0-2.645-5.293-3.97-5.293-1.983 0-3.968 6.594-3.968 10.586 0 .73.59 1.32 1.324 1.32h15.875a1.32 1.32 0 0 0 1.325-1.32c.093-5.18-1.985-14.555-5.293-14.555zm0 0" fill="#64b5f6"/><path d="M27.785 25.45a2.64 2.64 0 0 0-2.648 2.648 2.64 2.64 0 0 0 2.648 2.644 2.639 2.639 0 0 0 2.645-2.644 2.64 2.64 0 0 0-2.645-2.649zm7.938 5.292c-3.309 0-3.309 9.262-5.293 9.262-1.985 0-2.645-5.293-3.97-5.293-1.983 0-3.968 6.594-3.968 10.586 0 .73.59 1.32 1.324 1.32h15.875a1.32 1.32 0 0 0 1.325-1.32c.093-5.18-1.985-14.555-5.293-14.555zm0 0" fill="url(#h)"/><path d="M27.785 25.262a2.836 2.836 0 0 0-2.836 2.836 2.832 2.832 0 0 0 2.836 2.832 2.83 2.83 0 0 0 2.832-2.832 2.832 2.832 0 0 0-2.832-2.836zm0 .375a2.45 2.45 0 0 1 2.457 2.46 2.449 2.449 0 0 1-2.457 2.458 2.45 2.45 0 0 1-2.46-2.457 2.45 2.45 0 0 1 2.46-2.461zm7.938 4.918c-.914 0-1.594.644-2.106 1.543-.512.894-.887 2.062-1.219 3.222-.332 1.164-.62 2.32-.945 3.168-.16.426-.332.774-.508 1.004-.18.227-.34.324-.515.324-.414 0-.774-.277-1.121-.75-.344-.472-.653-1.125-.938-1.785-.289-.656-.558-1.32-.848-1.836a2.908 2.908 0 0 0-.46-.64c-.172-.164-.375-.282-.602-.282-.602 0-1.133.473-1.613 1.176s-.918 1.664-1.293 2.746c-.75 2.168-1.25 4.825-1.25 6.852a1.51 1.51 0 0 0 1.511 1.508h15.875c.832 0 1.512-.676 1.512-1.508.047-2.617-.45-6.262-1.379-9.277-.465-1.504-1.035-2.852-1.71-3.836-.676-.989-1.477-1.63-2.391-1.63zm0 .375c.738 0 1.441.53 2.082 1.465.64.933 1.203 2.253 1.66 3.738.914 2.969 1.41 6.597 1.363 9.16v.004c0 .633-.504 1.133-1.137 1.133H23.816c-.632 0-1.136-.5-1.136-1.133 0-1.965.492-4.602 1.23-6.727.367-1.066.797-2 1.25-2.66.45-.66.91-1.012 1.3-1.012.102 0 .212.051.34.176.126.125.262.317.395.555.27.48.54 1.14.832 1.805.29.664.602 1.336.98 1.855.38.516.845.902 1.423.902.32 0 .593-.191.808-.472.219-.278.399-.653.567-1.094.336-.887.625-2.047.957-3.2.328-1.155.699-2.3 1.18-3.144.48-.84 1.042-1.351 1.78-1.351zm0 0" fill="#212121"/></svg>
